X: 10
T:LES PIEDS GELES
M:3/4
L:1/8
Q:160
C:S.P.
R:bourree
K:C
cded|c2cded|c2B2c2|d4e2|1d2:|2c4||
|:e2|g2f2e2|d2dcde|1d2dcde|d4:|2d4e2|c4||
